logos/zenhub.svg

<?xml version="1.0" encoding="UTF-8"?>
<svg width="512px" height="129px" viewBox="0 0 512 129" version="1.1" xmlns="http://www.w3.org/2000/svg" preserveAspectRatio="xMidYMid">
    <title>Zenhub</title>
    <g>
        <path d="M309.126074,39.2949554 C296.281307,39.2949554 287.30992,48.1939144 287.30992,60.9357275 L287.30992,83.7169213 C287.30992,86.3700804 289.449914,88.4487822 292.180789,88.4487822 C294.865995,88.4487822 297.050856,86.3260146 297.050856,83.7169213 L297.050856,60.7570609 C297.050856,53.0367408 301.790328,48.0480968 309.125673,48.0480968 C316.631273,48.0480968 321.294231,52.9181638 321.294231,60.7570609 L321.294231,83.7169213 C321.294231,86.3700804 323.433824,88.4487822 326.165099,88.4487822 C328.850707,88.4487822 331.035567,86.3260146 331.035567,83.7169213 L331.035567,60.9357275 C331.035567,48.1939144 322.025723,39.2949554 309.125273,39.2949554 L309.126074,39.2949554 Z M368.398119,39.2956365 C362.286199,39.2956365 358.004209,41.507537 355.377089,43.5149324 L355.377089,22.3255139 C355.377089,19.7650131 353.191828,17.6820249 350.506221,17.6820249 C347.775346,17.6820249 345.636555,19.7215482 345.636555,22.3255139 L345.636555,83.7169213 C345.636555,86.3708815 347.775346,88.4495834 350.506221,88.4495834 C353.191828,88.4495834 355.377089,86.3268158 355.377089,83.7169213 L355.377089,60.7570609 C355.377089,51.3870792 361.614396,48.0484974 367.450705,48.0484974 C374.957507,48.0484974 379.620465,52.9181638 379.620465,60.7570609 L379.620465,83.7169213 C379.620465,86.3708815 381.759657,88.4495834 384.490933,88.4495834 C387.17654,88.4495834 389.3614,86.3268158 389.3614,83.7169213 L389.3614,60.9357275 C389.3614,48.194315 380.740536,39.2956365 368.397318,39.2956365 L368.398119,39.2956365 Z M442.332042,39.4731013 C439.599966,39.4731013 437.460773,41.5127448 437.460773,44.1166303 L437.460773,67.1642216 C437.460773,75.0039199 432.797815,79.8735864 425.294619,79.8735864 C417.959674,79.8735864 413.220603,74.885343 413.220603,67.1642216 L413.220603,44.1166303 C413.220603,41.5560094 411.033339,39.4731013 408.349334,39.4731013 C405.617257,39.4731013 403.478065,41.5127448 403.478065,44.1166303 L403.478065,66.8978241 C403.478065,79.6921156 412.447449,88.6270482 425.294619,88.6270482 C438.137784,88.6270482 447.203311,79.6921156 447.203311,66.8978241 L447.203311,44.1166303 C447.203311,41.5560094 445.020053,39.4731013 442.332042,39.4731013 L442.332042,39.4731013 Z M215.890549,79.7281694 L187.011056,79.7333771 L218.985167,47.7736873 C219.884509,46.9280254 220.379648,45.8083547 220.379648,44.6201817 C220.379648,42.1593096 218.281717,40.1575226 215.703069,40.1575226 L178.174269,40.1639321 C175.595622,40.1639321 173.497691,42.1657192 173.497691,44.6261906 C173.497691,47.0454006 175.639687,49.0892504 178.174269,49.0892504 L205.47701,49.0892504 L173.533745,80.865867 L173.49689,80.904725 C172.990534,81.4591523 172.04913,82.4910922 172.04913,84.0990916 C172.04913,86.6100384 174.191126,88.653087 176.823053,88.653087 L215.890549,88.653087 C218.470399,88.653087 220.56873,86.6504988 220.56873,84.1896267 C220.56873,81.6870925 218.514465,79.7269676 215.890549,79.7269676 L215.890549,79.7281694 Z M486.397797,39.0851223 C480.156484,39.0851223 474.34381,41.1149512 469.776995,44.84692 L469.776995,22.1149997 C469.776995,19.5544589 467.593738,17.4715108 464.909732,17.4715108 C462.177656,17.4715108 460.038464,19.5110341 460.038464,22.1149997 L460.038464,62.5040678 C460.030452,62.8125281 460.030452,63.1225907 460.038464,63.4342558 L460.038464,63.504761 L460.04247,63.504761 C460.230751,69.8522326 463.427521,76.8679013 468.226682,81.2820881 L468.290778,81.342979 C468.651316,81.6939026 469.019866,82.0332089 469.400433,82.3600967 L470.04139,82.949376 L470.04139,82.8936929 C474.508055,86.4714316 480.224585,88.4171349 486.397797,88.4171349 C500.751215,88.4171349 512,77.5829683 512,63.7515292 C512,49.9200901 500.751215,39.0856431 486.397797,39.0856431 L486.397797,39.0851223 Z M502.694114,63.7511286 C502.694114,72.6744439 495.559468,79.6636731 486.45388,79.6636731 C477.604676,79.6636731 470.662316,73.1094931 470.30979,64.4625903 L470.305784,63.0821304 C470.662316,54.3915624 477.604676,47.8373823 486.45388,47.8373823 C495.559468,47.8373823 502.694114,54.8270122 502.694114,63.750728 L502.694114,63.7511286 Z M269.441257,73.2965722 C267.80842,73.2965722 266.768869,74.2411818 265.763769,75.1553459 L265.694466,75.2258511 C263.635393,77.5509205 260.005176,80.3218553 254.400814,80.3218553 C251.136343,80.3218553 248.071369,79.3323788 245.475896,77.4499699 L270.839343,52.0400535 C271.813597,50.9692557 272.247444,49.9457284 272.247444,48.7227034 C272.247444,47.4504049 271.643343,46.1829136 270.602189,45.2583339 C266.466418,41.4410378 260.561607,39.2514505 254.400814,39.2514505 C240.554552,39.2514505 229.708368,50.1376147 229.708368,64.0339507 C229.708368,77.9306872 240.554552,88.8165309 254.400814,88.8165309 C261.650432,88.8165309 268.306764,85.8416919 272.652048,80.6679717 C273.446033,79.761419 273.958798,78.5704418 273.958798,77.6338443 C273.958798,75.1613548 272.017101,73.2965722 269.441657,73.2965722 L269.441257,73.2965722 Z M240.376286,71.1982411 C239.363175,68.9897456 238.831982,66.5372861 238.831982,64.0335501 C238.831982,54.9003216 245.670186,47.7456455 254.400013,47.7456455 C257.082015,47.7456455 259.71955,48.50598 261.658844,49.8103263 L240.376286,71.1978405 L240.376286,71.1982411 Z" fill="#EEEFF3"></path>
        <g>
            <path d="M75.0471845,90.7806618 L93.6345203,109.61116 C97.8656339,113.897957 104.835234,113.942824 109.122031,109.71171 C113.408827,105.480597 113.454495,98.5109969 109.222981,94.2242002 L90.2939355,75.0467839 L75.0471845,75.0467839 L75.0471845,90.7806618 Z" fill="#AFD94F"></path>
            <path d="M53.1437004,37.4113447 L34.5560441,18.5803253 C30.3243696,14.2930078 23.3556911,14.2479807 19.0688944,18.4796551 C14.7821377,22.7107687 14.7365497,29.6799681 18.9682241,33.9667648 L37.8972698,53.1437004 L53.1445016,53.1437004 L53.1445016,37.4113447 L53.1437004,37.4113447 Z" fill="#AFD94F"></path>
            <path d="M37.89735,53.1437004 L10.9517821,53.1437004 C4.92863445,53.1437004 0,58.0718541 0,64.0956427 C0,70.1194313 4.92863445,75.0475851 10.9517821,75.0475851 L37.6561901,75.0475851 L48.6582072,64.0459686 L37.8979108,53.1445016 L37.89735,53.1437004 Z" fill="#38E1FA"></path>
            <path d="M117.239744,53.1437004 L90.5346947,53.1437004 L79.5330783,64.1453168 L90.2939355,75.0467839 L117.239744,75.0467839 C123.263132,75.0467839 128.191285,70.1186301 128.191285,64.0948415 C128.191285,58.0714535 123.263132,53.1432998 117.239744,53.1432998 L117.239744,53.1437004 Z" fill="#38E1FA"></path>
            <path d="M37.6553088,75.0471845 L18.7723719,93.9301614 C14.5131363,98.1893169 14.5131363,105.159317 18.7723719,109.418473 C23.0315674,113.677628 30.0013276,113.677628 34.2605632,109.418473 L53.1437004,90.5354959 L53.1437004,75.0479857 L37.6553088,75.0479857 L37.6553088,75.0471845 Z" fill="#515DF4"></path>
            <path d="M90.5342941,53.144101 L109.417271,34.2610038 C113.676427,30.0018083 113.676427,23.0325689 109.417271,18.7733734 C105.158116,14.513617 98.1889163,14.513617 93.9297608,18.7733734 L75.0471845,37.6557895 L75.0471845,53.1432998 L90.5342941,53.1432998 L90.5342941,53.144101 Z" fill="#515DF4"></path>
            <path d="M75.0471845,37.6561901 L75.0471845,10.9517821 C75.0471845,4.92863445 70.1190307,0 64.0952421,0 C58.0714535,0 53.1437004,4.92863445 53.1437004,10.9517821 L53.1437004,37.4113447 L64.1457174,48.5572565 L75.0471845,37.6561901 Z" fill="#4BC6CF"></path>
            <path d="M53.1437004,90.5350953 L53.1437004,117.239343 C53.1437004,123.263132 58.0714535,128.191285 64.0952421,128.191285 C70.1190307,128.191285 75.0471845,123.263132 75.0471845,117.239343 L75.0471845,90.7802612 L64.0443662,79.6340289 L53.1437004,90.5350953 Z" fill="#4BC6CF"></path>
            <polygon fill="#50DEB4" points="53.144101 59.5592736 53.144101 53.144101 37.8976304 53.144101 48.6582072 64.045568"></polygon>
            <polygon fill="#50DEB4" points="75.0475851 68.6316112 75.0475851 75.0471845 90.2939355 75.0471845 79.5330783 64.1453168"></polygon>
            <polygon fill="#5575F1" points="75.0475851 59.6013364 79.5330783 64.1457174 90.5346947 53.144101 75.0475851 53.144101"></polygon>
            <polygon fill="#5575F1" points="53.144101 68.5907503 48.6578066 64.0451674 37.6557895 75.0475851 53.144101 75.0475851"></polygon>
            <polygon fill="#5073E8" points="75.0471845 68.6312106 79.5326777 64.1453168 75.0471845 59.6009358"></polygon>
            <polygon fill="#5073E8" points="48.6578066 64.0451674 53.1437004 68.5907503 53.1437004 59.5592736"></polygon>
            <polygon fill="#38BAA5" points="68.6316112 75.0471845 64.0451674 79.6340289 75.0475851 90.7802612 75.0475851 75.0471845"></polygon>
            <polygon fill="#38BAA5" points="59.558873 53.1437004 64.1457174 48.5568559 53.1437004 37.4111845 53.1437004 53.1437004"></polygon>
            <polygon fill="#2AB2C2" points="75.0475851 75.0475851 75.0475851 68.6316112 68.6316112 75.0475851"></polygon>
            <polygon fill="#2AB2C2" points="53.1437004 53.144101 53.1437004 59.5592736 59.558873 53.144101"></polygon>
            <polygon fill="#2EA7CD" points="68.6732734 53.144101 75.0471845 53.144101 75.0471845 37.6562702 64.1457174 48.5572565"></polygon>
            <polygon fill="#2EA7CD" points="59.5168102 75.0471845 53.1437004 75.0471845 53.1437004 90.5350953 64.0443662 79.6340289"></polygon>
            <polygon fill="#2DA5C5" points="64.0447668 79.6340289 68.6316112 75.0471845 59.5176114 75.0471845"></polygon>
            <polygon fill="#2DA5C5" points="64.1457174 48.5572565 59.5592736 53.1437004 68.6732734 53.1437004"></polygon>
            <polygon fill="#2CA7CD" points="75.0471845 53.144101 68.6732734 53.144101 75.0471845 59.6013364"></polygon>
            <polygon fill="#2CA7CD" points="53.1437004 75.0475851 59.5168102 75.0475851 53.1437004 68.5907503"></polygon>
            <polygon fill="#2CA5C8" points="68.6728728 53.144101 59.558873 53.144101 53.1437004 59.5592736 53.1437004 68.5907503 59.5168102 75.0475851 68.6312106 75.0475851 75.0471845 68.6316112 75.0471845 59.6013364"></polygon>
        </g>
    </g>
</svg>

<svg preserveAspectRatio="xMidYMid" viewBox="0 0 512 129" xmlns="http://www.w3.org/2000/svg">
  <path fill="#EEEFF3" d="M309.126 39.295c-12.845 0-21.816 8.899-21.816 21.64v22.782c0 2.653 2.14 4.732 4.87 4.732 2.686 0 4.87-2.123 4.87-4.732v-22.96c0-7.72 4.74-12.709 12.076-12.709 7.505 0 12.168 4.87 12.168 12.71v22.959c0 2.653 2.14 4.732 4.871 4.732 2.686 0 4.87-2.123 4.87-4.732V60.936c0-12.742-9.01-21.641-21.91-21.641h.001Zm59.272 0c-6.112 0-10.394 2.213-13.02 4.22v-21.19c0-2.56-2.186-4.643-4.872-4.643-2.73 0-4.87 2.04-4.87 4.644v61.39c0 2.655 2.14 4.734 4.87 4.734 2.686 0 4.871-2.123 4.871-4.733v-22.96c0-9.37 6.237-12.709 12.074-12.709 7.507 0 12.17 4.87 12.17 12.71v22.959c0 2.654 2.139 4.733 4.87 4.733 2.686 0 4.87-2.123 4.87-4.733V60.936c0-12.742-8.62-21.64-20.964-21.64h.001Zm73.934.178c-2.732 0-4.871 2.04-4.871 4.644v23.047c0 7.84-4.663 12.71-12.166 12.71-7.335 0-12.074-4.989-12.074-12.71V44.117c0-2.561-2.188-4.644-4.872-4.644-2.732 0-4.87 2.04-4.87 4.644v22.78c0 12.795 8.968 21.73 21.816 21.73 12.843 0 21.908-8.935 21.908-21.73v-22.78c0-2.561-2.183-4.644-4.871-4.644ZM215.891 79.728l-28.88.005 31.974-31.96c.9-.845 1.395-1.965 1.395-3.153 0-2.46-2.098-4.462-4.677-4.462l-37.529.006c-2.578 0-4.676 2.002-4.676 4.462 0 2.42 2.142 4.463 4.676 4.463h27.303l-31.943 31.777-.037.039c-.506.554-1.448 1.586-1.448 3.194 0 2.511 2.142 4.554 4.774 4.554h39.068c2.58 0 4.678-2.003 4.678-4.463 0-2.503-2.055-4.463-4.678-4.463v.001Zm270.507-40.643c-6.242 0-12.054 2.03-16.621 5.762V22.115c0-2.56-2.183-4.643-4.867-4.643-2.732 0-4.872 2.039-4.872 4.643v40.39c-.008.308-.008.618 0 .93v.07h.004c.189 6.347 3.386 13.363 8.185 17.777l.064.061c.36.35.729.69 1.11 1.017l.64.59v-.056c4.467 3.577 10.184 5.523 16.357 5.523C500.75 88.417 512 77.583 512 63.752c0-13.832-11.249-24.666-25.602-24.666Zm16.296 24.666c0 8.923-7.135 15.913-16.24 15.913-8.85 0-15.792-6.555-16.144-15.201l-.004-1.38c.356-8.691 7.299-15.246 16.148-15.246 9.105 0 16.24 6.99 16.24 15.914Zm-233.253 9.546c-1.633 0-2.672.944-3.677 1.858l-.07.07c-2.059 2.326-5.689 5.097-11.293 5.097-3.265 0-6.33-.99-8.925-2.872l25.363-25.41c.975-1.07 1.408-2.094 1.408-3.317 0-1.273-.604-2.54-1.645-3.465-4.136-3.817-10.04-6.007-16.201-6.007-13.846 0-24.693 10.887-24.693 24.783 0 13.897 10.847 24.783 24.693 24.783 7.25 0 13.906-2.975 18.251-8.149.794-.907 1.307-2.098 1.307-3.034 0-2.473-1.942-4.337-4.517-4.337Zm-29.065-2.099a17.208 17.208 0 0 1-1.544-7.164c0-9.134 6.838-16.288 15.568-16.288 2.682 0 5.32.76 7.259 2.064l-21.283 21.388Z"/>
  <path fill="#AFD94F" d="m75.047 90.78 18.588 18.831c4.23 4.287 11.2 4.332 15.487.1 4.287-4.23 4.332-11.2.101-15.487l-18.93-19.177H75.048V90.78Z"/>
  <path fill="#AFD94F" d="m53.144 37.411-18.588-18.83c-4.232-4.288-11.2-4.333-15.487-.101-4.287 4.23-4.332 11.2-.1 15.487l18.928 19.177h15.248V37.41h-.001Z"/>
  <path fill="#38E1FA" d="M37.897 53.144H10.952C4.929 53.144 0 58.072 0 64.096c0 6.023 4.929 10.952 10.952 10.952h26.704l11.002-11.002-10.76-10.901v-.001Z"/>
  <path fill="#38E1FA" d="M117.24 53.144H90.535L79.533 64.145l10.76 10.902h26.947c6.023 0 10.951-4.928 10.951-10.952s-4.928-10.952-10.951-10.952Z"/>
  <path fill="#515DF4" d="M37.655 75.047 18.772 93.93c-4.259 4.26-4.259 11.23 0 15.488 4.26 4.26 11.23 4.26 15.489 0l18.883-18.883V75.048H37.655Z"/>
  <path fill="#515DF4" d="m90.534 53.144 18.883-18.883c4.26-4.26 4.26-11.228 0-15.488-4.259-4.26-11.228-4.26-15.487 0L75.047 37.656v15.487h15.487v.001Z"/>
  <path fill="#4BC6CF" d="M75.047 37.656V10.952C75.047 4.929 70.12 0 64.095 0S53.144 4.929 53.144 10.952v26.46l11.002 11.145 10.901-10.9Z"/>
  <path fill="#4BC6CF" d="M53.144 90.535v26.704c0 6.024 4.927 10.952 10.951 10.952 6.024 0 10.952-4.928 10.952-10.952V90.78L64.044 79.634l-10.9 10.901Z"/>
  <path fill="#50DEB4" d="M53.144 59.56v-6.416H37.898l10.76 10.902z"/>
  <path fill="#50DEB4" d="M75.048 68.632v6.415h15.246l-10.76-10.902z"/>
  <path fill="#5575F1" d="m75.048 59.601 4.485 4.545 11.002-11.002H75.048z"/>
  <path fill="#5575F1" d="m53.144 68.59-4.486-4.545-11.002 11.003h15.488z"/>
  <path fill="#5073E8" d="m75.047 68.631 4.486-4.486-4.486-4.544z"/>
  <path fill="#5073E8" d="m48.658 64.045 4.486 4.546v-9.032z"/>
  <path fill="#38BAA5" d="m68.632 75.047-4.587 4.587L75.048 90.78V75.047z"/>
  <path fill="#38BAA5" d="m59.559 53.144 4.587-4.587L53.144 37.41v15.733z"/>
  <path fill="#2AB2C2" d="M75.048 75.048v-6.416l-6.416 6.416z"/>
  <path fill="#2AB2C2" d="M53.144 53.144v6.415l6.415-6.415z"/>
  <path fill="#2EA7CD" d="M68.673 53.144h6.374V37.656L64.146 48.557z"/>
  <path fill="#2EA7CD" d="M59.517 75.047h-6.373v15.488l10.9-10.901z"/>
  <path fill="#2DA5C5" d="m64.045 79.634 4.587-4.587h-9.114z"/>
  <path fill="#2DA5C5" d="m64.146 48.557-4.587 4.587h9.114z"/>
  <path fill="#2CA7CD" d="M75.047 53.144h-6.374l6.374 6.457z"/>
  <path fill="#2CA7CD" d="M53.144 75.048h6.373l-6.373-6.457z"/>
  <path fill="#2CA5C8" d="M68.673 53.144h-9.114l-6.415 6.415v9.032l6.373 6.457h9.114l6.416-6.416v-9.03z"/>
</svg>
